mimes/128/application-json.svg

<?xml version="1.0" encoding="UTF-8" standalone="no"?>
<svg
   xmlns:dc="http://purl.org/dc/elements/1.1/"
   xmlns:cc="http://creativecommons.org/ns#"
   xmlns:rdf="http://www.w3.org/1999/02/22-rdf-syntax-ns#"
   xmlns:svg="http://www.w3.org/2000/svg"
   xmlns="http://www.w3.org/2000/svg"
   xmlns:xlink="http://www.w3.org/1999/xlink"
   version="1.1"
   width="128"
   height="128"
   id="svg3172">
  <defs
     id="defs3174">
    <linearGradient
       id="linearGradient3600">
      <stop
         id="stop3602"
         style="stop-color:#f4f4f4;stop-opacity:1"
         offset="0" />
      <stop
         id="stop3604"
         style="stop-color:#dbdbdb;stop-opacity:1"
         offset="1" />
    </linearGradient>
    <linearGradient
       id="linearGradient3702-501-757-486">
      <stop
         id="stop3100"
         style="stop-color:#181818;stop-opacity:0"
         offset="0" />
      <stop
         id="stop3102"
         style="stop-color:#181818;stop-opacity:1"
         offset="0.5" />
      <stop
         id="stop3104"
         style="stop-color:#181818;stop-opacity:0"
         offset="1" />
    </linearGradient>
    <linearGradient
       id="linearGradient3688-464-309-255">
      <stop
         id="stop3094"
         style="stop-color:#181818;stop-opacity:1"
         offset="0" />
      <stop
         id="stop3096"
         style="stop-color:#181818;stop-opacity:0"
         offset="1" />
    </linearGradient>
    <linearGradient
       x1="25.132275"
       y1="0.98520643"
       x2="25.132275"
       y2="47.013336"
       id="linearGradient3019-2"
       xlink:href="#linearGradient3600"
       gradientUnits="userSpaceOnUse"
       gradientTransform="matrix(2.6285655,0,0,2.5204893,0.914429,-4.3579715)" />
    <linearGradient
       x1="23.99999"
       y1="5.5641499"
       x2="23.99999"
       y2="42.194839"
       id="linearGradient3016-9"
       xlink:href="#linearGradient3977-3"
       gradientUnits="userSpaceOnUse"
       gradientTransform="matrix(2.4594595,0,0,3.1081081,4.9729852,-14.594554)" />
    <linearGradient
       id="linearGradient3977-3">
      <stop
         id="stop3979-6"
         style="stop-color:#ffffff;stop-opacity:1"
         offset="0" />
      <stop
         id="stop3981-0"
         style="stop-color:#ffffff;stop-opacity:0.23529412"
         offset="0.00648027" />
      <stop
         id="stop3983-6"
         style="stop-color:#ffffff;stop-opacity:0.15686275"
         offset="0.99423188" />
      <stop
         id="stop3985-2"
         style="stop-color:#ffffff;stop-opacity:0.39215687"
         offset="1" />
    </linearGradient>
    <linearGradient
       x1="-51.786404"
       y1="50.786446"
       x2="-51.786404"
       y2="2.9062471"
       id="linearGradient3148"
       xlink:href="#linearGradient3104-6"
       gradientUnits="userSpaceOnUse"
       gradientTransform="matrix(2.1456297,0,0,2.3791292,158.08983,-7.746462)" />
    <linearGradient
       id="linearGradient3104-6">
      <stop
         id="stop3106-3"
         style="stop-color:#000000;stop-opacity:0.31782946"
         offset="0" />
      <stop
         id="stop3108-9"
         style="stop-color:#000000;stop-opacity:0.24031007"
         offset="1" />
    </linearGradient>
    <linearGradient
       gradientUnits="userSpaceOnUse"
       xlink:href="#linearGradient3702-501-757-486"
       id="linearGradient4097"
       y2="39.999443"
       x2="25.058096"
       y1="47.027729"
       x1="25.058096"
       gradientTransform="matrix(2.8421052,0,0,0.71428566,-4.2105336,87.430066)" />
    <radialGradient
       gradientTransform="matrix(5.6949649,0,0,0.99999992,-52.665305,-162.00149)"
       gradientUnits="userSpaceOnUse"
       xlink:href="#linearGradient3688-464-309-255"
       id="radialGradient4095"
       fy="43.5"
       fx="4.9929786"
       r="2.5"
       cy="43.5"
       cx="4.9929786" />
    <radialGradient
       gradientTransform="matrix(5.6949649,0,0,0.99999992,75.334676,75.001496)"
       gradientUnits="userSpaceOnUse"
       xlink:href="#linearGradient3688-464-309-255"
       id="radialGradient4093"
       fy="43.5"
       fx="4.9929786"
       r="2.5"
       cy="43.5"
       cx="4.9929786" />
    <linearGradient
       xlink:href="#linearGradient937"
       id="linearGradient4175-3"
       x1="60.538681"
       y1="1.5931232"
       x2="60.538681"
       y2="118.59026"
       gradientUnits="userSpaceOnUse" />
    <linearGradient
       id="linearGradient937">
      <stop
         id="stop933"
         offset="0"
         style="stop-color:#9bdb4d;stop-opacity:1" />
      <stop
         id="stop935"
         offset="1"
         style="stop-color:#3a9104;stop-opacity:1" />
    </linearGradient>
    <linearGradient
       xlink:href="#linearGradient4169-6"
       id="linearGradient911"
       x1="61"
       y1="63"
       x2="67"
       y2="63"
       gradientUnits="userSpaceOnUse" />
    <linearGradient
       id="linearGradient4169-6">
      <stop
         style="stop-color:#43d6b5;stop-opacity:1"
         offset="0"
         id="stop4171-7" />
      <stop
         style="stop-color:#0e9a83;stop-opacity:1"
         offset="1"
         id="stop4173-5" />
    </linearGradient>
    <linearGradient
       xlink:href="#linearGradient937"
       id="linearGradient913"
       gradientUnits="userSpaceOnUse"
       x1="60.520607"
       y1="1.5206056"
       x2="60.551304"
       y2="118.53259" />
  </defs>
  <metadata
     id="metadata3177">
    <rdf:RDF>
      <cc:Work
         rdf:about="">
        <dc:format>image/svg+xml</dc:format>
        <dc:type
           rdf:resource="http://purl.org/dc/dcmitype/StillImage" />
        <dc:title />
      </cc:Work>
    </rdf:RDF>
  </metadata>
  <g
     id="g978"
     style="opacity:0.2;stroke-width:1.03923047"
     transform="matrix(0.92592591,0,0,1,4.7407489,0)">
    <rect
       style="fill:url(#radialGradient4093);fill-opacity:1;stroke:none;stroke-width:1.48070288"
       id="rect2801"
       y="116.00149"
       x="103.78947"
       height="4.9999995"
       width="14.210526" />
    <rect
       style="fill:url(#radialGradient4095);fill-opacity:1;stroke:none;stroke-width:1.48070288"
       id="rect3696"
       transform="scale(-1)"
       y="-121.00149"
       x="-24.210518"
       height="4.9999995"
       width="14.210526" />
    <rect
       style="fill:url(#linearGradient4097);fill-opacity:1;stroke:none;stroke-width:1.48070288"
       id="rect3700"
       y="116.00149"
       x="24.210518"
       height="5"
       width="79.578949" />
  </g>
  <path
     d="m 18,2.0004521 c 21.081878,0 91.99989,0.00694 91.99989,0.00694 L 110,118 c 0,0 -61.333339,0 -91.999999,0 0,-38.666664 0,-77.33333 0,-115.999995 z"
     id="path4160"
     style="display:inline;fill:url(#linearGradient3019-2);fill-opacity:1;stroke:none" />
  <path
     d="m 109.5,117.5 h -91 V 2.500002 h 91 z"
     id="rect6741-1"
     style="fill:none;stroke:url(#linearGradient3016-9);stroke-width:1;stroke-linecap:round;stroke-linejoin:round;stroke-miterlimit:4;stroke-dasharray:none;stroke-dashoffset:0;stroke-opacity:1" />
  <path
     d="m 17.500001,1.49999 c 21.311001,0 92.999899,0.008 92.999899,0.008 l 1e-4,116.99202 c 0,0 -61.999997,0 -92.999999,0 0,-39.000096 0,-77.999807 0,-116.999456 z"
     id="path4160-6-1"
     style="display:inline;fill:none;stroke:url(#linearGradient3148);stroke-width:0.99999994;stroke-linecap:butt;stroke-linejoin:round;stroke-miterlimit:4;stroke-dasharray:none;stroke-dashoffset:0;stroke-opacity:1" />
  <g
     id="g829">
    <path
       style="color:#000000;font-style:normal;font-variant:normal;font-weight:600;font-stretch:normal;font-size:19px;line-height:125%;font-family:'Open Sans';-inkscape-font-specification:'Open Sans Semi-Bold';text-align:start;letter-spacing:0px;word-spacing:0px;writing-mode:lr-tb;text-anchor:start;clip-rule:nonzero;display:inline;overflow:visible;visibility:visible;opacity:1;isolation:auto;mix-blend-mode:normal;color-interpolation:sRGB;color-interpolation-filters:linearRGB;solid-color:#000000;solid-opacity:1;fill:url(#linearGradient4175-3);fill-opacity:1;fill-rule:nonzero;stroke:none;stroke-width:1;stroke-linecap:butt;stroke-linejoin:round;stroke-miterlimit:4;stroke-dasharray:none;stroke-dashoffset:0;stroke-opacity:1;marker:none;color-rendering:auto;image-rendering:auto;shape-rendering:auto;text-rendering:auto;enable-background:accumulate"
       d="m 54,44.000001 c -2.89074,2.7e-5 -4.42298,0.428248 -5.874999,1.312499 C 46.68628,46.184852 46,47.573373 46,49.4375 V 55 c 0,1.111335 -0.495799,1.88783 -1.375,2.4375 -0.86588,0.537751 -2.82662,0.875012 -4.625,0.875 v 3.375 c 3.54346,8e-6 6,1.152366 6,3.375 v 5.0625 c 0,2.043394 0.65454,3.59182 2,4.5 1.35876,0.920119 2.92276,1.351094 6,1.375 V 72.75 C 52.468041,72.7261 51.67938,72.439383 51.000001,71.9375 50.3206,71.435614 50,70.729874 50,69.75 v -5.375 c 0,-2.40188 -1.19942,-3.819802 -4.25,-4.25 v -0.25 C 48.80058,59.408975 50,57.940502 50,55.5625 V 50.25 c 0,-0.979854 0.3206,-1.63504 1.000001,-2.124999 C 51.6927,47.623137 52.48136,47.30977 54,47.250001 Z m 20,0 v 3.25 c 1.51864,0.05978 2.3073,0.373136 2.999999,0.875 C 77.6794,48.61496 78,49.270146 78,50.25 v 5.3125 c 0,2.378002 1.19942,3.846475 4.25,4.3125 v 0.25 C 79.19942,60.555198 78,61.97312 78,64.375 v 5.375 c 0,0.979874 -0.3206,1.685614 -1.000001,2.1875 C 76.32062,72.439383 75.531959,72.7261 74,72.75 V 76 c 3.07724,-0.0239 4.64124,-0.454881 6,-1.375 1.34546,-0.90818 2,-2.456606 2,-4.5 v -5.0625 c 0,-2.222634 2.45654,-3.374992 6,-3.375 v -3.375 c -1.79838,1.3e-5 -3.75912,-0.337249 -4.625,-0.874999 C 82.495799,56.88783 82,56.111335 82,55 V 49.4375 C 82,47.573373 81.313699,46.184852 79.874999,45.3125 78.42298,44.428249 76.89074,44.000028 74,44.000001 Z"
       id="path3873-9-3" />
    <g
       id="text828"
       style="font-style:normal;font-weight:normal;font-size:40px;line-height:1.25;font-family:sans-serif;letter-spacing:0px;word-spacing:0px;fill:url(#linearGradient911);fill-opacity:1;stroke:none"
       aria-label=";">
      <path
         id="path832"
         style="font-style:normal;font-variant:normal;font-weight:normal;font-stretch:normal;font-size:32px;font-family:'Noto Sans Gothic';-inkscape-font-specification:'Noto Sans Gothic, Normal';font-variant-ligatures:normal;font-variant-caps:normal;font-variant-numeric:normal;font-feature-settings:normal;text-align:start;writing-mode:lr-tb;text-anchor:start;fill:url(#linearGradient913);fill-opacity:1"
         d="m 63,53 h 4 v 4 h -4 z m 0,12 h 4 v 3 l -3,5 h -3 l 2,-5 z" />
    </g>
  </g>
</svg>

<?xml version="1.0" encoding="UTF-8" standalone="no"?>
<svg
   xmlns:dc="http://purl.org/dc/elements/1.1/"
   xmlns:cc="http://creativecommons.org/ns#"
   xmlns:rdf="http://www.w3.org/1999/02/22-rdf-syntax-ns#"
   xmlns:svg="http://www.w3.org/2000/svg"
   xmlns="http://www.w3.org/2000/svg"
   xmlns:xlink="http://www.w3.org/1999/xlink"
   id="svg3172"
   height="128"
   width="128"
   version="1.1">
  <defs
     id="defs3174">
    <linearGradient
       id="linearGradient3600">
      <stop
         offset="0"
         style="stop-color:#f4f4f4;stop-opacity:1"
         id="stop3602" />
      <stop
         offset="1"
         style="stop-color:#dbdbdb;stop-opacity:1"
         id="stop3604" />
    </linearGradient>
    <linearGradient
       id="linearGradient3702-501-757-486">
      <stop
         offset="0"
         style="stop-color:#181818;stop-opacity:0"
         id="stop3100" />
      <stop
         offset="0.5"
         style="stop-color:#181818;stop-opacity:1"
         id="stop3102" />
      <stop
         offset="1"
         style="stop-color:#181818;stop-opacity:0"
         id="stop3104" />
    </linearGradient>
    <linearGradient
       id="linearGradient3688-464-309-255">
      <stop
         offset="0"
         style="stop-color:#181818;stop-opacity:1"
         id="stop3094" />
      <stop
         offset="1"
         style="stop-color:#181818;stop-opacity:0"
         id="stop3096" />
    </linearGradient>
    <linearGradient
       gradientTransform="matrix(2.6285655,0,0,2.5204893,0.914429,-4.3579715)"
       gradientUnits="userSpaceOnUse"
       xlink:href="#linearGradient3600"
       id="linearGradient3019-2"
       y2="47.013336"
       x2="25.132275"
       y1="0.98520643"
       x1="25.132275" />
    <linearGradient
       gradientTransform="matrix(2.4594595,0,0,3.1081081,4.9729852,-14.594554)"
       gradientUnits="userSpaceOnUse"
       xlink:href="#linearGradient3977-3"
       id="linearGradient3016-9"
       y2="42.194839"
       x2="23.99999"
       y1="5.5641499"
       x1="23.99999" />
    <linearGradient
       id="linearGradient3977-3">
      <stop
         offset="0"
         style="stop-color:#ffffff;stop-opacity:1"
         id="stop3979-6" />
      <stop
         offset="0.00648027"
         style="stop-color:#ffffff;stop-opacity:0.23529412"
         id="stop3981-0" />
      <stop
         offset="0.99423188"
         style="stop-color:#ffffff;stop-opacity:0.15686275"
         id="stop3983-6" />
      <stop
         offset="1"
         style="stop-color:#ffffff;stop-opacity:0.39215687"
         id="stop3985-2" />
    </linearGradient>
    <linearGradient
       gradientTransform="matrix(2.1456297,0,0,2.3791292,158.08983,-7.746462)"
       gradientUnits="userSpaceOnUse"
       xlink:href="#linearGradient3104-6"
       id="linearGradient3148"
       y2="2.9062471"
       x2="-51.786404"
       y1="50.786446"
       x1="-51.786404" />
    <linearGradient
       id="linearGradient3104-6">
      <stop
         offset="0"
         style="stop-color:#000000;stop-opacity:0.31782946"
         id="stop3106-3" />
      <stop
         offset="1"
         style="stop-color:#000000;stop-opacity:0.24031007"
         id="stop3108-9" />
    </linearGradient>
    <linearGradient
       gradientTransform="matrix(2.8421052,0,0,0.71428566,-4.2105336,87.430066)"
       x1="25.058096"
       y1="47.027729"
       x2="25.058096"
       y2="39.999443"
       id="linearGradient4097"
       xlink:href="#linearGradient3702-501-757-486"
       gradientUnits="userSpaceOnUse" />
    <radialGradient
       cx="4.9929786"
       cy="43.5"
       r="2.5"
       fx="4.9929786"
       fy="43.5"
       id="radialGradient4095"
       xlink:href="#linearGradient3688-464-309-255"
       gradientUnits="userSpaceOnUse"
       gradientTransform="matrix(5.6949649,0,0,0.99999992,-52.665305,-162.00149)" />
    <radialGradient
       cx="4.9929786"
       cy="43.5"
       r="2.5"
       fx="4.9929786"
       fy="43.5"
       id="radialGradient4093"
       xlink:href="#linearGradient3688-464-309-255"
       gradientUnits="userSpaceOnUse"
       gradientTransform="matrix(5.6949649,0,0,0.99999992,75.334676,75.001496)" />
    <linearGradient
       gradientUnits="userSpaceOnUse"
       y2="118.59026"
       x2="60.538681"
       y1="1.5931232"
       x1="60.538681"
       id="linearGradient4175-3"
       xlink:href="#linearGradient937" />
    <linearGradient
       id="linearGradient937">
      <stop
         style="stop-color:#9bdb4d;stop-opacity:1"
         offset="0"
         id="stop933" />
      <stop
         style="stop-color:#3a9104;stop-opacity:1"
         offset="1"
         id="stop935" />
    </linearGradient>
  </defs>
  <metadata
     id="metadata3177">
    <rdf:RDF>
      <cc:Work
         rdf:about="">
        <dc:format>image/svg+xml</dc:format>
        <dc:type
           rdf:resource="http://purl.org/dc/dcmitype/StillImage" />
        <dc:title></dc:title>
      </cc:Work>
    </rdf:RDF>
  </metadata>
  <g
     transform="matrix(0.92592591,0,0,1,4.7407489,0)"
     style="opacity:0.2;stroke-width:1.03923047"
     id="g978">
    <rect
       width="14.210526"
       height="4.9999995"
       x="103.78947"
       y="116.00149"
       id="rect2801"
       style="fill:url(#radialGradient4093);fill-opacity:1;stroke:none;stroke-width:1.48070288" />
    <rect
       width="14.210526"
       height="4.9999995"
       x="-24.210518"
       y="-121.00149"
       transform="scale(-1)"
       id="rect3696"
       style="fill:url(#radialGradient4095);fill-opacity:1;stroke:none;stroke-width:1.48070288" />
    <rect
       width="79.578949"
       height="5"
       x="24.210518"
       y="116.00149"
       id="rect3700"
       style="fill:url(#linearGradient4097);fill-opacity:1;stroke:none;stroke-width:1.48070288" />
  </g>
  <path
     style="display:inline;fill:url(#linearGradient3019-2);fill-opacity:1;stroke:none"
     id="path4160"
     d="m 18,2.0004521 c 21.081878,0 91.99989,0.00694 91.99989,0.00694 L 110,118 c 0,0 -61.333339,0 -91.999999,0 0,-38.666664 0,-77.33333 0,-115.999995 z" />
  <path
     style="fill:none;stroke:url(#linearGradient3016-9);stroke-width:1;stroke-linecap:round;stroke-linejoin:round;stroke-miterlimit:4;stroke-dasharray:none;stroke-dashoffset:0;stroke-opacity:1"
     id="rect6741-1"
     d="m 109.5,117.5 h -91 V 2.500002 h 91 z" />
  <path
     style="display:inline;fill:none;stroke:url(#linearGradient3148);stroke-width:0.99999994;stroke-linecap:butt;stroke-linejoin:round;stroke-miterlimit:4;stroke-dasharray:none;stroke-dashoffset:0;stroke-opacity:1"
     id="path4160-6-1"
     d="m 17.500001,1.49999 c 21.311001,0 92.999899,0.008 92.999899,0.008 l 1e-4,116.99202 c 0,0 -61.999997,0 -92.999999,0 0,-39.000096 0,-77.999807 0,-116.999456 z" />
  <path
     id="path3873-9-3"
     d="M 54 44 C 51.10926 44.000027 49.577019 44.428249 48.125 45.3125 C 46.686279 46.184852 46 47.573373 46 49.4375 L 46 55 C 46 56.111335 45.504201 56.88783 44.625 57.4375 C 43.75912 57.975251 41.79838 58.312512 40 58.3125 L 40 61.6875 C 43.54346 61.687508 46 62.839866 46 65.0625 L 46 70.125 C 46 72.168394 46.65454 73.71682 48 74.625 C 49.35876 75.545119 50.92276 75.976094 54 76 L 54 72.75 C 52.468041 72.7261 51.679379 72.439383 51 71.9375 C 50.320599 71.435614 50 70.729874 50 69.75 L 50 64.375 C 50 61.97312 48.80058 60.555198 45.75 60.125 L 45.75 59.875 C 48.80058 59.408975 50 57.940502 50 55.5625 L 50 50.25 C 50 49.270146 50.320599 48.614959 51 48.125 C 51.692699 47.623136 52.48136 47.309769 54 47.25 L 54 44 z M 74 44 L 74 47.25 C 75.51864 47.30978 76.307301 47.623136 77 48.125 C 77.679401 48.614959 78 49.270146 78 50.25 L 78 55.5625 C 78 57.940502 79.19942 59.408975 82.25 59.875 L 82.25 60.125 C 79.19942 60.555198 78 61.97312 78 64.375 L 78 69.75 C 78 70.729874 77.679401 71.435614 77 71.9375 C 76.320621 72.439383 75.531959 72.7261 74 72.75 L 74 76 C 77.07724 75.9761 78.64124 75.545119 80 74.625 C 81.34546 73.71682 82 72.168394 82 70.125 L 82 65.0625 C 82 62.839866 84.45654 61.687508 88 61.6875 L 88 58.3125 C 86.20162 58.312513 84.24088 57.97525 83.375 57.4375 C 82.495799 56.887829 82 56.111335 82 55 L 82 49.4375 C 82 47.573373 81.3137 46.184852 79.875 45.3125 C 78.422981 44.428249 76.89074 44.000027 74 44 z M 63 53 L 63 57 L 67 57 L 67 53 L 63 53 z M 63 65 L 63 68 L 61 73 L 64 73 L 67 68 L 67 65 L 63 65 z "
     style="color:#000000;font-style:normal;font-variant:normal;font-weight:600;font-stretch:normal;font-size:19px;line-height:125%;font-family:'Open Sans';-inkscape-font-specification:'Open Sans Semi-Bold';text-align:start;letter-spacing:0px;word-spacing:0px;writing-mode:lr-tb;text-anchor:start;clip-rule:nonzero;display:inline;overflow:visible;visibility:visible;opacity:1;isolation:auto;mix-blend-mode:normal;color-interpolation:sRGB;color-interpolation-filters:linearRGB;solid-color:#000000;solid-opacity:1;fill:url(#linearGradient4175-3);fill-opacity:1;fill-rule:nonzero;stroke:none;stroke-width:1;stroke-linecap:butt;stroke-linejoin:round;stroke-miterlimit:4;stroke-dasharray:none;stroke-dashoffset:0;stroke-opacity:1;marker:none;color-rendering:auto;image-rendering:auto;shape-rendering:auto;text-rendering:auto;enable-background:accumulate" />
</svg>
